X:9
T:Marie's Wedding
M:C
L:1/8
Q:1/2=110
K:G
"G"D3/2E/ DE GA B2|"C"AG EG "D"BA B/d3/2|"G"D3/2E/ DE GA B2|\
"C"AG EC "D"D2 D2:|
|:"G"dd de dc B2|"C"AG EG "D"BA B/d3/2|"G"d3/2d/ de dc B2|\
"C"AG EC "D"D2 D2:|
%%text 2015-02-02
